X: 60
T: Quoz
R: jig
M: 6/8
L: 1/8
Z: 2012 John Chambers <jc:trillian.mit.edu>
B: Saml. Ann & Peter Thompson "Twenty Four Country Dances for the Year 1791", London 1791, p.30 #2
K: G
% - - - - - - - - - - - - - - - - - - - - - - - - -
d |\
ded g2d | B2d G2A | B2B Bcd | dAA A2d |\
ded g2d | B2d G2A | B2d AGA | B2G HG2 :|
B |\
e2f gaf | e2B B2^c | d2e fge | d2A A2B |\
=c2c edc | B2B dcB | a2a abg | f2d d2 "^D.C."|]
% - - - - - - - - Dance description - - - - - - - -
%%begintext align
%% The 3 Ladies go round the 3 Gent: .|.
%% the 3 Gent: go round the 3 Ladies :|.
%% lead down the middle up again & cast off .|:
%% hands 6 round :|:
%%endtext

%%sep 1 1 500
%%sep 1 1 500
